packages/core/assets/Icons/apps.svg

<svg viewBox="0 0 20 20" fill="none" xmlns="http://www.w3.org/2000/svg">
<path d="M4.99998 16.6666C4.54165 16.6666 4.14929 16.5035 3.8229 16.1771C3.49651 15.8507 3.33331 15.4583 3.33331 15C3.33331 14.5416 3.49651 14.1493 3.8229 13.8229C4.14929 13.4965 4.54165 13.3333 4.99998 13.3333C5.45831 13.3333 5.85067 13.4965 6.17706 13.8229C6.50345 14.1493 6.66665 14.5416 6.66665 15C6.66665 15.4583 6.50345 15.8507 6.17706 16.1771C5.85067 16.5035 5.45831 16.6666 4.99998 16.6666ZM9.99998 16.6666C9.54165 16.6666 9.14928 16.5035 8.8229 16.1771C8.49651 15.8507 8.33331 15.4583 8.33331 15C8.33331 14.5416 8.49651 14.1493 8.8229 13.8229C9.14928 13.4965 9.54165 13.3333 9.99998 13.3333C10.4583 13.3333 10.8507 13.4965 11.1771 13.8229C11.5035 14.1493 11.6666 14.5416 11.6666 15C11.6666 15.4583 11.5035 15.8507 11.1771 16.1771C10.8507 16.5035 10.4583 16.6666 9.99998 16.6666ZM15 16.6666C14.5416 16.6666 14.1493 16.5035 13.8229 16.1771C13.4965 15.8507 13.3333 15.4583 13.3333 15C13.3333 14.5416 13.4965 14.1493 13.8229 13.8229C14.1493 13.4965 14.5416 13.3333 15 13.3333C15.4583 13.3333 15.8507 13.4965 16.1771 13.8229C16.5035 14.1493 16.6666 14.5416 16.6666 15C16.6666 15.4583 16.5035 15.8507 16.1771 16.1771C15.8507 16.5035 15.4583 16.6666 15 16.6666ZM4.99998 11.6666C4.54165 11.6666 4.14929 11.5035 3.8229 11.1771C3.49651 10.8507 3.33331 10.4583 3.33331 9.99998C3.33331 9.54165 3.49651 9.14928 3.8229 8.8229C4.14929 8.49651 4.54165 8.33331 4.99998 8.33331C5.45831 8.33331 5.85067 8.49651 6.17706 8.8229C6.50345 9.14928 6.66665 9.54165 6.66665 9.99998C6.66665 10.4583 6.50345 10.8507 6.17706 11.1771C5.85067 11.5035 5.45831 11.6666 4.99998 11.6666ZM9.99998 11.6666C9.54165 11.6666 9.14928 11.5035 8.8229 11.1771C8.49651 10.8507 8.33331 10.4583 8.33331 9.99998C8.33331 9.54165 8.49651 9.14928 8.8229 8.8229C9.14928 8.49651 9.54165 8.33331 9.99998 8.33331C10.4583 8.33331 10.8507 8.49651 11.1771 8.8229C11.5035 9.14928 11.6666 9.54165 11.6666 9.99998C11.6666 10.4583 11.5035 10.8507 11.1771 11.1771C10.8507 11.5035 10.4583 11.6666 9.99998 11.6666ZM15 11.6666C14.5416 11.6666 14.1493 11.5035 13.8229 11.1771C13.4965 10.8507 13.3333 10.4583 13.3333 9.99998C13.3333 9.54165 13.4965 9.14928 13.8229 8.8229C14.1493 8.49651 14.5416 8.33331 15 8.33331C15.4583 8.33331 15.8507 8.49651 16.1771 8.8229C16.5035 9.14928 16.6666 9.54165 16.6666 9.99998C16.6666 10.4583 16.5035 10.8507 16.1771 11.1771C15.8507 11.5035 15.4583 11.6666 15 11.6666ZM4.99998 6.66665C4.54165 6.66665 4.14929 6.50345 3.8229 6.17706C3.49651 5.85067 3.33331 5.45831 3.33331 4.99998C3.33331 4.54165 3.49651 4.14929 3.8229 3.8229C4.14929 3.49651 4.54165 3.33331 4.99998 3.33331C5.45831 3.33331 5.85067 3.49651 6.17706 3.8229C6.50345 4.14929 6.66665 4.54165 6.66665 4.99998C6.66665 5.45831 6.50345 5.85067 6.17706 6.17706C5.85067 6.50345 5.45831 6.66665 4.99998 6.66665ZM9.99998 6.66665C9.54165 6.66665 9.14928 6.50345 8.8229 6.17706C8.49651 5.85067 8.33331 5.45831 8.33331 4.99998C8.33331 4.54165 8.49651 4.14929 8.8229 3.8229C9.14928 3.49651 9.54165 3.33331 9.99998 3.33331C10.4583 3.33331 10.8507 3.49651 11.1771 3.8229C11.5035 4.14929 11.6666 4.54165 11.6666 4.99998C11.6666 5.45831 11.5035 5.85067 11.1771 6.17706C10.8507 6.50345 10.4583 6.66665 9.99998 6.66665ZM15 6.66665C14.5416 6.66665 14.1493 6.50345 13.8229 6.17706C13.4965 5.85067 13.3333 5.45831 13.3333 4.99998C13.3333 4.54165 13.4965 4.14929 13.8229 3.8229C14.1493 3.49651 14.5416 3.33331 15 3.33331C15.4583 3.33331 15.8507 3.49651 16.1771 3.8229C16.5035 4.14929 16.6666 4.54165 16.6666 4.99998C16.6666 5.45831 16.5035 5.85067 16.1771 6.17706C15.8507 6.50345 15.4583 6.66665 15 6.66665Z" fill="currentColor"/>
</svg>

<svg xmlns="http://www.w3.org/2000/svg" width="20" height="20" fill="none" viewBox="0 0 20 20">
  <path fill="#201F1F" d="M5 16.667c-.458 0-.85-.164-1.177-.49A1.605 1.605 0 0 1 3.333 15c0-.458.164-.85.49-1.177.326-.327.719-.49 1.177-.49.458 0 .85.163 1.177.49.326.326.49.719.49 1.177 0 .458-.164.85-.49 1.177-.326.326-.719.49-1.177.49Zm5 0c-.458 0-.85-.164-1.177-.49A1.605 1.605 0 0 1 8.333 15c0-.458.164-.85.49-1.177.326-.327.719-.49 1.177-.49.458 0 .85.163 1.177.49.327.326.49.719.49 1.177 0 .458-.163.85-.49 1.177-.326.326-.719.49-1.177.49Zm5 0c-.458 0-.85-.164-1.177-.49a1.605 1.605 0 0 1-.49-1.177c0-.458.163-.85.49-1.177.326-.327.719-.49 1.177-.49.458 0 .85.163 1.177.49.326.326.49.719.49 1.177 0 .458-.164.85-.49 1.177-.326.326-.719.49-1.177.49Zm-10-5c-.458 0-.85-.163-1.177-.49A1.605 1.605 0 0 1 3.333 10c0-.458.164-.85.49-1.177.326-.326.719-.49 1.177-.49.458 0 .85.164 1.177.49.326.326.49.719.49 1.177 0 .458-.164.85-.49 1.177-.326.327-.719.49-1.177.49Zm5 0c-.458 0-.85-.163-1.177-.49A1.605 1.605 0 0 1 8.333 10c0-.458.164-.85.49-1.177.326-.326.719-.49 1.177-.49.458 0 .85.164 1.177.49.327.326.49.719.49 1.177 0 .458-.163.85-.49 1.177-.326.327-.719.49-1.177.49Zm5 0c-.458 0-.85-.163-1.177-.49a1.605 1.605 0 0 1-.49-1.177c0-.458.163-.85.49-1.177.326-.326.719-.49 1.177-.49.458 0 .85.164 1.177.49.326.326.49.719.49 1.177 0 .458-.164.85-.49 1.177-.326.327-.719.49-1.177.49Zm-10-5c-.458 0-.85-.164-1.177-.49A1.605 1.605 0 0 1 3.333 5c0-.458.164-.85.49-1.177.326-.326.719-.49 1.177-.49.458 0 .85.164 1.177.49.326.326.49.719.49 1.177 0 .458-.164.85-.49 1.177-.326.326-.719.49-1.177.49Zm5 0c-.458 0-.85-.164-1.177-.49A1.605 1.605 0 0 1 8.333 5c0-.458.164-.85.49-1.177.326-.326.719-.49 1.177-.49.458 0 .85.164 1.177.49.327.326.49.719.49 1.177 0 .458-.163.85-.49 1.177-.326.326-.719.49-1.177.49Zm5 0c-.458 0-.85-.164-1.177-.49A1.605 1.605 0 0 1 13.333 5c0-.458.163-.85.49-1.177.326-.326.719-.49 1.177-.49.458 0 .85.164 1.177.49.326.326.49.719.49 1.177 0 .458-.164.85-.49 1.177-.326.326-.719.49-1.177.49Z"/>
</svg>
